cssgg/product-hunt.svg

<svg
  width="24"
  height="24"
  viewBox="0 0 24 24"
  fill="none"
  xmlns="http://www.w3.org/2000/svg"
>
  <path
    fill-rule="evenodd"
    clip-rule="evenodd"
    d="M12 19C8.13401 19 5 15.866 5 12C5 8.13401 8.13401 5 12 5C15.866 5 19 8.13401 19 12C19 15.866 15.866 19 12 19ZM3 12C3 7.02944 7.02944 3 12 3C16.9706 3 21 7.02944 21 12C21 16.9706 16.9706 21 12 21C7.02944 21 3 16.9706 3 12ZM9 16V8H13C14.6569 8 16 9.34315 16 11C16 12.6569 14.6569 14 13 14H11V16H9ZM14 11C14 11.5523 13.5523 12 13 12H11V10H13C13.5523 10 14 10.4477 14 11Z"
    fill="currentColor"
  />
</svg>

<svg viewBox="0 0 24 24" xmlns="http://www.w3.org/2000/svg"><path fill-rule="evenodd" d="M12 19c-3.87 0-7-3.14-7-7 0-3.87 3.13-7 7-7 3.86 0 7 3.13 7 7 0 3.86-3.14 7-7 7Zm-9-7c0-4.98 4.02-9 9-9 4.97 0 9 4.02 9 9 0 4.97-4.03 9-9 9 -4.98 0-9-4.03-9-9Zm6 4V8h4c1.65 0 3 1.34 3 3 0 1.65-1.35 3-3 3h-2v2H9Zm5-5c0 .55-.45 1-1 1h-2v-2h2c.55 0 1 .44 1 1Z"/></svg>
